svg/icon/chips.svg

<svg xmlns="http://www.w3.org/2000/svg" xmlns:xlink="http://www.w3.org/1999/xlink" width="32" height="32" viewBox="0 0 32 32"><defs><linearGradient id="chips-c" x1="50%" x2="50%" y1="0%" y2="100%"><stop offset="0%" stop-color="#FFF" stop-opacity=".5"/><stop offset="100%" stop-opacity=".5"/></linearGradient><circle id="chips-b" cx="16" cy="15" r="15"/><filter id="chips-a" width="111.7%" height="111.7%" x="-5.8%" y="-4.2%" filterUnits="objectBoundingBox"><feOffset dy=".5" in="SourceAlpha" result="shadowOffsetOuter1"/><feGaussianBlur in="shadowOffsetOuter1" result="shadowBlurOuter1" stdDeviation=".5"/><feComposite in="shadowBlurOuter1" in2="SourceAlpha" operator="out" result="shadowBlurOuter1"/><feColorMatrix in="shadowBlurOuter1" values="0 0 0 0 0 0 0 0 0 0 0 0 0 0 0 0 0 0 0.199473505 0"/></filter><path id="chips-e" d="M13.5478279,24.4075355 C13.559532,24.3946211 13.5708948,24.3810602 13.5818797,24.366853 C14.1212419,23.6692755 15.0384632,22.4829672 16.0840217,21.1306612 C17.0326779,21.2786976 17.9679941,21.1950697 18.8617974,20.8072586 C19.1852015,20.6667669 19.4739644,20.448903 19.7777213,20.265144 C19.8214105,20.2388018 19.8605758,20.2050787 19.8944415,20.1801363 C20.9155816,21.1899203 21.9276736,22.1910509 22.9661343,23.2180146 C22.7109786,23.3871391 22.4581494,23.572298 22.1889045,23.7298422 C21.1430761,24.3423299 20.012842,24.7185015 18.8103526,24.899461 C18.1044733,25.0057205 17.3949748,25.018319 16.6879322,24.9807782 C15.6032677,24.9229999 14.5530155,24.7417707 13.5478279,24.4075355 Z M12.5822864,24.0320999 C12.2443772,23.8806714 11.9122995,23.7097016 11.5864972,23.5179593 C9.89928931,22.5249732 8.66939713,21.1358361 7.875493,19.3677278 C7.46496882,18.453641 7.21382005,17.4966686 7.08934437,16.507882 C6.99291772,15.7415405 6.97869931,14.9690907 7.02678338,14.1998224 C7.150225,12.2250487 7.75088805,10.4099826 8.96242556,8.81278039 C10.0802508,7.33927196 11.5477197,6.32986969 13.2845627,5.68276801 C14.113108,5.37404261 14.9682806,5.16686826 15.8496925,5.09242294 C16.5131751,5.03630261 17.1829913,4.97890972 17.8460861,5.0076698 C18.2558625,5.0254469 18.6594898,5.06466073 19.0559281,5.12758682 C19.0528577,5.13175588 19.0498434,5.13598232 19.0468868,5.14026569 C18.3622459,6.1343814 17.6171653,7.21624564 16.4840209,8.8615763 C15.6350967,8.93621859 14.8293778,9.19784831 14.0743306,9.67761875 C12.7447803,10.5222232 11.9480325,11.7380363 11.5748639,13.2371234 C11.4167811,13.8722629 11.3423283,14.5179648 11.3584856,15.1715566 C11.3669067,15.5137744 11.3958187,15.8488323 11.446549,16.1761332 C11.3435871,16.3256425 11.2410109,16.4745924 11.1385511,16.6233738 C10.8907726,16.9831715 11.1956457,17.4588867 11.6370479,17.4012137 C11.6755895,17.3961779 11.7128451,17.39131 11.7489011,17.3865989 C12.0067297,18.1158179 12.3975381,18.7968577 12.9391847,19.4216848 C13.2745438,19.8084943 13.6499601,20.131848 14.0628145,20.3923434 C13.4757868,21.8109043 12.902048,23.1973584 12.6181526,23.8834191 C12.5980678,23.9319559 12.5862811,23.9820595 12.5822864,24.0320999 Z M20.0251013,5.33390227 C20.9034046,5.57130119 21.7395566,5.94272898 22.5210982,6.47545166 C22.659146,6.56936731 22.7853021,6.68020813 22.9172747,6.78277724 C22.9418338,6.80186579 22.9680732,6.81853645 23,6.84080642 C22.9581203,6.88890955 22.9335613,6.92110557 22.9049952,6.94922936 C21.9938538,7.84664549 21.0805151,8.74215278 20.1732515,9.64338662 C20.0730763,9.74290157 20.0098691,9.75868143 19.8887541,9.67278298 C19.5142978,9.40666608 19.11329,9.21085305 18.6876518,9.076655 C19.2461067,7.60868922 19.7645976,6.24577482 19.9713603,5.70232513 L20.004683,5.61474095 C20.0400556,5.52176909 20.0453964,5.42466924 20.0251013,5.33390227 Z M16.3210069,16.2821408 C14.7197557,16.491224 13.1664594,16.6941989 11.5681813,16.9030276 C14.2209482,13.0509592 16.848639,9.23566802 19.4762006,5.42037687 L19.5197606,5.44035621 C18.5089611,8.09709993 17.4984202,10.7538436 16.4646128,13.4710344 C18.3378232,13.1750347 20.1575208,12.8876885 22.0402963,12.590289 C19.0461584,16.4628457 16.0937709,20.2815728 13.1412541,24.1001727 C13.1267772,24.0905011 13.1123002,24.0807023 13.0978233,24.0710308 C14.1640746,21.4943317 15.2304551,18.9175054 16.3210069,16.2821408 Z"/><filter id="chips-d" width="121.9%" height="117.5%" x="-10.9%" y="-6.2%" filterUnits="objectBoundingBox"><feOffset dy=".5" in="SourceAlpha" result="shadowOffsetOuter1"/><feGaussianBlur in="shadowOffsetOuter1" result="shadowBlurOuter1" stdDeviation=".5"/><feColorMatrix in="shadowBlurOuter1" values="0 0 0 0 0 0 0 0 0 0 0 0 0 0 0 0 0 0 0.204257246 0"/></filter></defs><g fill="none" fill-rule="evenodd"><g fill-rule="nonzero"><use fill="#000" filter="url(#chips-a)" xlink:href="#chips-b"/><use fill="#598182" fill-rule="evenodd" xlink:href="#chips-b"/><use fill="url(#chips-c)" fill-rule="evenodd" style="mix-blend-mode:soft-light" xlink:href="#chips-b"/><circle cx="16" cy="15" r="14.5" stroke="#000" stroke-opacity=".097"/></g><use fill="#000" filter="url(#chips-d)" xlink:href="#chips-e"/><use fill="#FFF" xlink:href="#chips-e"/></g></svg>

<svg xmlns="http://www.w3.org/2000/svg" xmlns:xlink="http://www.w3.org/1999/xlink" width="32" height="32" viewBox="0 0 32 32"><defs><linearGradient id="c" x1="50%" x2="50%" y1="0%" y2="100%"><stop offset="0%" stop-color="#FFF" stop-opacity=".5"/><stop offset="100%" stop-opacity=".5"/></linearGradient><circle id="b" cx="16" cy="15" r="15"/><filter id="a" width="111.7%" height="111.7%" x="-5.8%" y="-4.2%" filterUnits="objectBoundingBox"><feOffset dy=".5" in="SourceAlpha" result="shadowOffsetOuter1"/><feGaussianBlur in="shadowOffsetOuter1" result="shadowBlurOuter1" stdDeviation=".5"/><feComposite in="shadowBlurOuter1" in2="SourceAlpha" operator="out" result="shadowBlurOuter1"/><feColorMatrix in="shadowBlurOuter1" values="0 0 0 0 0 0 0 0 0 0 0 0 0 0 0 0 0 0 0.199473505 0"/></filter><path id="e" d="M13.548 24.408a295794.353 295794.353 0 0 0 2.536-3.277c.949.148 1.884.064 2.778-.324.323-.14.612-.358.916-.542.043-.026.083-.06.116-.085l3.072 3.038c-.255.17-.508.354-.777.512a9.368 9.368 0 0 1-3.379 1.17 10.47 10.47 0 0 1-2.122.08 11.919 11.919 0 0 1-3.14-.572zm-.966-.376a9.992 9.992 0 0 1-.996-.514 8.953 8.953 0 0 1-3.71-4.15 9.975 9.975 0 0 1-.787-2.86 12.322 12.322 0 0 1-.062-2.308c.123-1.975.724-3.79 1.935-5.387 1.118-1.474 2.586-2.483 4.323-3.13a9.661 9.661 0 0 1 2.565-.59c.663-.057 1.333-.114 1.996-.085.41.017.813.057 1.21.12a683038.835 683038.835 0 0 1-2.572 3.734 5.29 5.29 0 0 0-2.41.816c-1.33.844-2.126 2.06-2.5 3.56a7.241 7.241 0 0 0-.216 1.934c.009.342.038.677.089 1.004l-.308.447c-.248.36.057.836.498.778l.112-.014c.258.729.649 1.41 1.19 2.035.336.386.711.71 1.124.97l-1.445 3.491a.49.49 0 0 0-.036.15zm7.443-18.698a8.188 8.188 0 0 1 2.496 1.141c.138.094.264.205.396.308.025.019.051.036.083.058-.042.048-.066.08-.095.108-.911.898-1.824 1.793-2.732 2.694-.1.1-.163.116-.284.03a4.28 4.28 0 0 0-1.201-.596l1.283-3.375.034-.087a.488.488 0 0 0 .02-.281zm-3.704 10.948l-4.753.621L19.476 5.42l.044.02-3.055 8.031 5.575-.88-8.899 11.51-.043-.03 3.223-7.789z"/><filter id="d" width="121.9%" height="117.5%" x="-10.9%" y="-6.2%" filterUnits="objectBoundingBox"><feOffset dy=".5" in="SourceAlpha" result="shadowOffsetOuter1"/><feGaussianBlur in="shadowOffsetOuter1" result="shadowBlurOuter1" stdDeviation=".5"/><feColorMatrix in="shadowBlurOuter1" values="0 0 0 0 0 0 0 0 0 0 0 0 0 0 0 0 0 0 0.204257246 0"/></filter></defs><g fill="none" fill-rule="evenodd"><g fill-rule="nonzero"><use fill="#000" filter="url(#a)" xlink:href="#b"/><use fill="#598182" fill-rule="evenodd" xlink:href="#b"/><use fill="url(#c)" fill-rule="evenodd" style="mix-blend-mode:soft-light" xlink:href="#b"/><circle cx="16" cy="15" r="14.5" stroke="#000" stroke-opacity=".097"/></g><use fill="#000" filter="url(#d)" xlink:href="#e"/><use fill="#FFF" xlink:href="#e"/></g></svg>
